packages/radix-icons/outline/15/double-arrow-right.svg

<svg width="15" height="15" fill="none" xmlns="http://www.w3.org/2000/svg">
  <path
    fill-rule="evenodd"
    clip-rule="evenodd"
    d="M2.14645 11.1464C1.95118 11.3417 1.95118 11.6583 2.14645 11.8536C2.34171 12.0488 2.65829 12.0488 2.85355 11.8536L6.85355 7.85355C7.04882 7.65829 7.04882 7.34171 6.85355 7.14645L2.85355 3.14645C2.65829 2.95118 2.34171 2.95118 2.14645 3.14645C1.95118 3.34171 1.95118 3.65829 2.14645 3.85355L5.79289 7.5L2.14645 11.1464ZM8.14645 11.1464C7.95118 11.3417 7.95118 11.6583 8.14645 11.8536C8.34171 12.0488 8.65829 12.0488 8.85355 11.8536L12.8536 7.85355C13.0488 7.65829 13.0488 7.34171 12.8536 7.14645L8.85355 3.14645C8.65829 2.95118 8.34171 2.95118 8.14645 3.14645C7.95118 3.34171 7.95118 3.65829 8.14645 3.85355L11.7929 7.5L8.14645 11.1464Z"
    fill="currentColor"
  />
</svg>

<svg width="15" height="15" fill="none" xmlns="http://www.w3.org/2000/svg">
  <path
    fill-rule="evenodd"
    clip-rule="evenodd"
    d="M2.146 11.146a.5.5 0 00.708.708l4-4a.5.5 0 000-.708l-4-4a.5.5 0 10-.708.708L5.793 7.5l-3.647 3.646zm6 0a.5.5 0 00.708.708l4-4a.5.5 0 000-.708l-4-4a.5.5 0 10-.708.708L11.793 7.5l-3.647 3.646z"
    fill="currentColor"
  />
</svg>
